!!!OTL: Wahl des Br&auml;utigams (184), S. 402
!!!id: T0362
**kern
*clefG2
*k[]
*C:
{16c
=1
16c
8g
8g
8a
16g
=2yy
16g
=3
8e
8e
4c}
=4
{4cc
8b
8a
=5
4.g
8e
=6
8g
8g
8f
8d
=7
4c}
8r
=8
{8g
=9
8a
8g
8a
16g
16g
=10
8a
8f
4g}
=11
{8cc
8cc
8dd
8cc
=12
8b
8a
4a}
=13
{4cc
8b
8a
=14
4.g
8e
=15
8g
8g
8f
8d
=16
4c}
4r
==
*-
!!!minrhy: 16
!!!meters: 2/4 ]  ZZ[5
!!!cut: Wahl des Br&auml;utigams (184), S. 402
!!!reg: Luxemburg
!!!trd: Singendes Volk, Esch-Alzette, 1937 posth.
!!!rhy1:   X_X_X_XX  X_X_X__
!!!rhy2: X__X_X_  X__.X_  X_X_X_X_  X__0_
!!!key: T0362  16  C 2/4 ]  ZZ[5
!!!mod: HEPTATONIK IONISCH]  AMBITUS[9
!!!kad: 11561
!!!akz: 53_+1551_66_+17_+1551_
!!!fot: 'a__b__c__d__b__
!!!for: 'a__b__av_c__bv_
!!!fok: '\__\__-__\__\__
!! PHRAS[VORWIEGEND VOLLTAKTIG]
!!!fkt: Hochzeits-, Ehestandslied
!!!bem: Junglinster, fff Schwester des Verfassers, 1904
!! THILL; Mathias
!! PR[31] 2K[0] 2G[9] 3K[12] 3G[7] 4A[0] 4Ü[0] 5A[3] 6K[0] 6G[0]
!! 7K[0] 7G[0] 8A[0] MEHR[0] SI[31] ABS[58] SR[9] SP[22]
!! ST[18] 2k[7] 2g[16] 3k[5] 3g[7] 4d[0] 4ü[0] 5d[3] 6k[0] 6g[0]
!! 7k[0] 7g[0] 8d[0] mehr[0] si[38] dm[-7] sr[22] sp[16]
!! 1F[3] 2F[83] 3F[14] 4F[0] LF[0] 2P[0] 3P[0] 4P[0] TRI[0] DF[3] AB[64]
!! TF[0] U3K[0] U3[0] U4[0] U4Ü[0] U5[0] U6K[0] U6[0] U7K[0] U7[0]
!! N1[20] N2K[0] N2[19] N3K[0] N3[32] N4[7] N4Ü[0] N5[15] N6K[0] N6[7]
!!!n7k: 0] N7[0] O1[0] O2K[0] O2[0] O3K[0] O3[0] HÖ[0
!!!RNB: symbol: &auml;      = a umlaut  (UTF-8: Å„)
